icons/svg/responsive.svg

﻿<?xml version="1.0" encoding="utf-8"?>
<!DOCTYPE svg PUBLIC "-//W3C//DTD SVG 1.1//EN" "http://www.w3.org/Graphics/SVG/1.1/DTD/svg11.dtd">
<svg xmlns="http://www.w3.org/2000/svg" xmlns:xlink="http://www.w3.org/1999/xlink" version="1.1" baseProfile="full" width="24" height="24" viewBox="0 0 24.00 24.00" enable-background="new 0 0 24.00 24.00" xml:space="preserve">
	<path fill="#000000" fill-opacity="1" stroke-width="0.2" stroke-linejoin="round" d="M 4,6L 4,16L 9.0003,16.0016L 9.0003,12.0019C 9.0003,10.8974 9.89573,10.0019 11.0003,10.0019L 16.0003,10.0019C 17.1049,10.0019 18.0003,10.8974 18.0003,12.0019L 18.0003,16L 20,16L 20,6L 4,6 Z M 5.66918e-011,20L 5.66918e-011,18L 4,18C 2.895,18 2,17.104 2,16L 2,6C 2,4.896 2.895,4 4,4L 20,4C 21.104,4 22,4.896 22,6L 21.99,16C 21.99,17.104 21.104,18 20,18L 24,18L 24,20L 18.0003,20L 18.0003,20.0019C 18.0003,21.1065 17.1049,22.0019 16.0003,22.0019L 11.0003,22.0019C 9.89573,22.0019 9.0003,21.1065 9.0003,20.0019L 9.0003,20.0017L 5.66918e-011,20 Z M 11.5003,20.0019C 11.2242,20.0019 11.0003,20.2258 11.0003,20.5019C 11.0003,20.7781 11.2242,21.0019 11.5003,21.0019C 11.7764,21.0019 12.0003,20.7781 12.0003,20.5019C 12.0003,20.2258 11.7764,20.0019 11.5003,20.0019 Z M 15.5003,20.0019C 15.2242,20.0019 15.0003,20.2258 15.0003,20.5019C 15.0003,20.7781 15.2242,21.0019 15.5003,21.0019C 15.7764,21.0019 16.0003,20.7781 16.0003,20.5019C 16.0003,20.2258 15.7764,20.0019 15.5003,20.0019 Z M 13.0003,20.0019L 13.0003,21.0019L 14.0003,21.0019L 14.0003,20.0019L 13.0003,20.0019 Z M 11.0003,12.0019L 11.0003,19.0019L 16.0003,19.0019L 16.0003,12.0019L 11.0003,12.0019 Z "/>
</svg>

<svg xmlns="http://www.w3.org/2000/svg" version="1.1" baseProfile="full" width="24" height="24" viewBox="0 0 24.00 24.00" xml:space="preserve"><path fill="#000" fill-opacity="1" stroke-width=".2" stroke-linejoin="round" d="M4 6v10l5 .002v-4c0-1.105.896-2 2-2h5c1.105 0 2 .895 2 2V16h2V6H4zM0 20v-2h4c-1.105 0-2-.896-2-2V6c0-1.104.895-2 2-2h16c1.104 0 2 .896 2 2l-.01 10c0 1.104-.886 2-1.99 2h4v2h-6v.002c0 1.105-.895 2-2 2h-5c-1.104 0-2-.895-2-2L0 20zm11.5.002c-.276 0-.5.224-.5.5s.224.5.5.5.5-.224.5-.5-.224-.5-.5-.5zm4 0c-.276 0-.5.224-.5.5s.224.5.5.5.5-.224.5-.5-.224-.5-.5-.5zm-2.5 0v1h1v-1h-1zm-2-8v7h5v-7h-5z"/></svg>
